Avidclan_Website/assets/images/icons/oops-ic.svg

<?xml version="1.0" encoding="utf-8"?>
<!-- Generator: Adobe Illustrator 24.1.1, SVG Export Plug-In . SVG Version: 6.00 Build 0)  -->
<svg version="1.1" id="Layer_1" xmlns="http://www.w3.org/2000/svg" xmlns:xlink="http://www.w3.org/1999/xlink" x="0px" y="0px"
	 viewBox="0 0 465.4 328.3" style="enable-background:new 0 0 465.4 328.3;" xml:space="preserve">
<style type="text/css">
	.st0{fill:#007AFB;}
</style>
<g>
	<path class="st0" d="M383.5,0c2.7,0,4.8,2.1,4.8,4.8v175h0c2.3,0.6,1.1,0.4,3.5,0.7c10.3,1.1,19.3-3,24.7-10.7
		c5.4,3.2,11.6,6.2,16.1,9.7c-3.4,8.1-2.6,18.9,3,26.6c5.8,8.6,15.7,11.6,25.3,10.1c2.4,5.8,3.9,11.8,4.5,18
		c-8.4,3-15.7,10.3-16.7,20.6c-1.1,10.3,3,19.3,10.7,24.7c-3.2,5.4-6.2,11.6-9.7,16.1c-8.1-3.4-18.9-2.6-26.6,3
		c-8.4,6.6-11.6,15.7-10.1,25.3c-5.8,2.4-11.8,3.9-18,4.5c-3-8.4-10.3-15.7-20.6-16.7c-10.3-1.1-19.3,3-24.7,10.7
		c-5.4-3.2-11.6-6.2-16.1-9.6c3.4-8.1,2.6-18.9-3-26.6c-6.6-8.4-15.7-11.6-25.3-10.1c-2.4-5.8-3.9-11.8-4.5-18
		c5.2-1.9,9.9-5.3,12.9-10H4.8c-2.6,0-4.8-2.1-4.8-4.8V4.8C0,2.1,2.1,0,4.8,0L383.5,0z M385.7,204.7c-6.1,0-3.5-0.2-7.8,0.3
		c-3.4,0.5-1.8,0.2-4.8,0.9c-14.7,3.7-24.4,14-29.5,27.9c-1.5,4.6-2,9.4-1.8,14.2c0,2.7,0.6,5.4,1.1,8.1c5.5,22.2,28,35.7,50.2,30.1
		c22.2-5.5,35.7-28,30.1-50.2c-4.2-16.8-18.2-28.4-35-31L385.7,204.7z M384.3,225.4l4,0.6c7.6,2.2,12.7,7.6,15,15
		c2.8,11.1-4,22.3-15.1,25.1c-11.1,2.8-22.3-4-25.1-15.1c-0.5-2.4-0.4-1.4-0.5-3.1c-0.4-3.7,0.2-7.4,1.8-10.8c0.7-1.1,1.4-2.3,2-3.4
		c0,0,0,0,0,0c2.8-3.9,6.9-6.2,11.4-7.7l0.2-0.1C381.5,225.3,379.5,225.6,384.3,225.4L384.3,225.4z M15.2,14.5
		c-2.6,0-4.8,2.1-4.8,4.8V229c0,2.7,2.1,4.8,4.8,4.8h302.5c0.1-8.5-4.3-15.9-10.8-21.1c3.2-5.4,6.2-11.6,9.7-16.1
		c8.1,3.4,18.9,2.6,26.6-3c8.4-6.6,11.6-15.7,10.1-25.3c2.1-0.8,4.3-1.6,6.4-2.2c4.7-1.1,2.4-0.6,6.9-1.7l4.6-0.6
		c1.5,3.8,3.5,7.6,6.7,10.2l0,0V19.3c0-2.6-2.1-4.8-4.8-4.8L15.2,14.5z"/>
	<path class="st0" d="M222.3,256.5c2.6,0,4.8,0.9,4.8,3.6v8.3l44.3,18.9c4.1,2.5,3.6,8.9-1.3,8.9H118.2c-4.8,0-5.4-6.4-1.3-8.9
		l44.3-18.9v-8.3c0-2.7,2.1-3.6,4.8-3.6H222.3z"/>
	<path class="st0" d="M144.5,72.5l1.1,0.3c6.3,2.6,9.8,7.4,9.8,13.8c0,3.8-5.3,8.3-21.5,20.2c-14.4,10.7-7.9,6-19.5,14.3
		c5.6,4.6,11.5,8.9,17.3,13.1c11.1,7.8,18.6,13.2,22.4,16.2c0.7,0.5,1.2,1.3,1.4,2.1c1.5,4.8,1.9,6.2,1.9,7.2c0,0.5-0.1,1-0.3,1.5
		c-0.1,0.2-0.1,0.2-0.4,1c-0.1,0.3-0.3,0.6-0.4,0.8c-3.4,5.2-6.2,7.8-9.8,7.8c-2.9,0-9.3-4.8-27.8-19.5
		c-15.8-12.6-24.8-20.2-27.6-23.2v0c-1.6-1.5-2.3-3.6-2.4-5.8c0-2.8,1.3-5.3,3.8-7.4l48.6-41.6C142.9,72.4,141.9,72.9,144.5,72.5
		L144.5,72.5z"/>
	<path class="st0" d="M223.5,31.1c3.3,0,6,1.9,8.4,5.3c0.9,1.2,1,2.9,0.4,4.2c-2.2,4.9-4.1,9.9-6.1,15L191,166.5
		c-10.4,32.6-18.1,47.7-26.7,47.7c-4.8,0-7.8-3.3-7.8-8.2c0-2.3,0.8-4.7,2.2-7.1c2-3.3,1-1.7,2.8-4.8c8.7-18.4,15.3-37.7,21.6-57.1
		c6.2-20.1,12.2-40.2,18.3-60.3c2.1-6.9,4.1-13.8,5.5-20.8c0.3-4.4,1.1-8.7,1.9-12.9c0-0.2,0.1-0.3,0.1-0.5c1-3.1,3-5.8,5.8-8
		C217.5,32.3,220.5,31.1,223.5,31.1L223.5,31.1z"/>
	<path class="st0" d="M242.6,72.4c2.9,0,9.3,4.8,27.7,19.5c15.7,12.5,24.7,20.1,27.6,23.2v0c1.6,1.5,2.4,3.5,2.5,5.6
		c0,3-1.3,5.6-3.8,7.7L247.8,170c-1.2,1-2.9,1.3-4.4,0.7c-6.3-2.6-9.8-7.4-9.8-13.8c0-3.9,5.6-8.7,21.6-20.5
		c6.5-4.7,13.1-9.4,19.6-14.1c-5.6-4.6-11.5-8.9-17.3-13.1c-11.1-7.8-18.6-13.2-22.4-16.2c-0.7-0.5-1.2-1.3-1.4-2.1
		c-1.5-4.8-1.9-6.2-1.9-7.2c0.1-0.9,0-0.5,0.2-1.3c0-0.8,0.4-1.5,0.7-2.2C236.2,75.1,239.1,72.4,242.6,72.4L242.6,72.4z"/>
</g>
</svg>

<svg width="466" height="329" viewBox="0 0 466 329" fill="none" xmlns="http://www.w3.org/2000/svg">
<g clip-path="url(#clip0_493_442)">
<path d="M383.5 0C386.2 0 388.3 2.1 388.3 4.8V179.8C390.6 180.4 389.4 180.2 391.8 180.5C402.1 181.6 411.1 177.5 416.5 169.8C421.9 173 428.1 176 432.6 179.5C429.2 187.6 430 198.4 435.6 206.1C441.4 214.7 451.3 217.7 460.9 216.2C463.3 222 464.8 228 465.4 234.2C457 237.2 449.7 244.5 448.7 254.8C447.6 265.1 451.7 274.1 459.4 279.5C456.2 284.9 453.2 291.1 449.7 295.6C441.6 292.2 430.8 293 423.1 298.6C414.7 305.2 411.5 314.3 413 323.9C407.2 326.3 401.2 327.8 395 328.4C392 320 384.7 312.7 374.4 311.7C364.1 310.6 355.1 314.7 349.7 322.4C344.3 319.2 338.1 316.2 333.6 312.8C337 304.7 336.2 293.9 330.6 286.2C324 277.8 314.9 274.6 305.3 276.1C302.9 270.3 301.4 264.3 300.8 258.1C306 256.2 310.7 252.8 313.7 248.1H4.8C2.2 248.1 0 246 0 243.3V4.8C0 2.1 2.1 0 4.8 0H383.5ZM385.7 204.7C379.6 204.7 382.2 204.5 377.9 205C374.5 205.5 376.1 205.2 373.1 205.9C358.4 209.6 348.7 219.9 343.6 233.8C342.1 238.4 341.6 243.2 341.8 248C341.8 250.7 342.4 253.4 342.9 256.1C348.4 278.3 370.9 291.8 393.1 286.2C415.3 280.7 428.8 258.2 423.2 236C419 219.2 405 207.6 388.2 205L385.7 204.7ZM384.3 225.4L388.3 226C395.9 228.2 401 233.6 403.3 241C406.1 252.1 399.3 263.3 388.2 266.1C377.1 268.9 365.9 262.1 363.1 251C362.6 248.6 362.7 249.6 362.6 247.9C362.2 244.2 362.8 240.5 364.4 237.1C365.1 236 365.8 234.8 366.4 233.7C369.2 229.8 373.3 227.5 377.8 226L378 225.9C381.5 225.3 379.5 225.6 384.3 225.4ZM15.2 14.5C12.6 14.5 10.4 16.6 10.4 19.3V229C10.4 231.7 12.5 233.8 15.2 233.8H317.7C317.8 225.3 313.4 217.9 306.9 212.7C310.1 207.3 313.1 201.1 316.6 196.6C324.7 200 335.5 199.2 343.2 193.6C351.6 187 354.8 177.9 353.3 168.3C355.4 167.5 357.6 166.7 359.7 166.1C364.4 165 362.1 165.5 366.6 164.4L371.2 163.8C372.7 167.6 374.7 171.4 377.9 174V19.3C377.9 16.7 375.8 14.5 373.1 14.5H15.2Z" fill="#0E53BE"/>
<path d="M222.3 256.5C224.9 256.5 227.1 257.4 227.1 260.1V268.4L271.4 287.3C275.5 289.8 275 296.2 270.1 296.2H118.2C113.4 296.2 112.8 289.8 116.9 287.3L161.2 268.4V260.1C161.2 257.4 163.3 256.5 166 256.5H222.3Z" fill="#0E53BE"/>
<path d="M144.5 72.5L145.6 72.8C151.9 75.4 155.4 80.2 155.4 86.6C155.4 90.4 150.1 94.9 133.9 106.8C119.5 117.5 126 112.8 114.4 121.1C120 125.7 125.9 130 131.7 134.2C142.8 142 150.3 147.4 154.1 150.4C154.8 150.9 155.3 151.7 155.5 152.5C157 157.3 157.4 158.7 157.4 159.7C157.4 160.2 157.3 160.7 157.1 161.2C157 161.4 157 161.4 156.7 162.2C156.6 162.5 156.4 162.8 156.3 163C152.9 168.2 150.1 170.8 146.5 170.8C143.6 170.8 137.2 166 118.7 151.3C102.9 138.7 93.9 131.1 91.1 128.1C89.5 126.6 88.8 124.5 88.7 122.3C88.7 119.5 90 117 92.5 114.9L141.1 73.3C142.9 72.4 141.9 72.9 144.5 72.5Z" fill="#0E53BE"/>
<path d="M223.5 31.1C226.8 31.1 229.5 33 231.9 36.4C232.8 37.6 232.9 39.3 232.3 40.6C230.1 45.5 228.2 50.5 226.2 55.6L191 166.5C180.6 199.1 172.9 214.2 164.3 214.2C159.5 214.2 156.5 210.9 156.5 206C156.5 203.7 157.3 201.3 158.7 198.9C160.7 195.6 159.7 197.2 161.5 194.1C170.2 175.7 176.8 156.4 183.1 137C189.3 116.9 195.3 96.8 201.4 76.7C203.5 69.8 205.5 62.9 206.9 55.9C207.2 51.5 208 47.2 208.8 43C208.8 42.8 208.9 42.7 208.9 42.5C209.9 39.4 211.9 36.7 214.7 34.5C217.5 32.3 220.5 31.1 223.5 31.1Z" fill="#0E53BE"/>
<path d="M242.6 72.4C245.5 72.4 251.9 77.2 270.3 91.9C286 104.4 295 112 297.9 115.1C299.5 116.6 300.3 118.6 300.4 120.7C300.4 123.7 299.1 126.3 296.6 128.4L247.8 170C246.6 171 244.9 171.3 243.4 170.7C237.1 168.1 233.6 163.3 233.6 156.9C233.6 153 239.2 148.2 255.2 136.4C261.7 131.7 268.3 127 274.8 122.3C269.2 117.7 263.3 113.4 257.5 109.2C246.4 101.4 238.9 96 235.1 93C234.4 92.5 233.9 91.7 233.7 90.9C232.2 86.1 231.8 84.7 231.8 83.7C231.9 82.8 231.8 83.2 232 82.4C232 81.6 232.4 80.9 232.7 80.2C236.2 75.1 239.1 72.4 242.6 72.4Z" fill="#0E53BE"/>
</g>
<defs>
<clipPath id="clip0_493_442">
<rect width="465.4" height="328.3" fill="white"/>
</clipPath>
</defs>
</svg>
